X: 60
T: Praeludia organi op. 5 – Maestoso
C: Franciszek Walczyński
%%abc-version 2.0
%%abcx-abcm2ps-target-version 5.9.1 (29 Sep 2008)
%%abc-creator hum2abc beta
%%abcx-conversion-date 2021/10/04 07:38:40
%%abc-edited-by Andrzej Borzym
%%abc-edited-by Krzysztof Stępień
%%abcx-initial-encoding-date 2021-07-26
%%humdrum-veritas 2501746314
%%humdrum-veritas-data 1489599577
%%linebreak <none>
%%barnumbers 0
L: 1/4
M: C|
N: Derived from pl-kozmzk--mzk-m-159--049_walczynski-franciszek--praeludia-organi-op-5-maestoso.krn
Q: "49. Maestoso."
%%staves {1 2}
V: 1 clef=treble
V: 2 clef=bass
K: Db
[V:1] B2F2 & B2F2 | 
[V:2] B,2F,2 & B,2F,2 | 
[V:1] AGF2 & AGF2 | 
[V:2] A,G,F,2 & A,G,F,2 | 
[V:1] EDCF & EDCF | 
[V:2] E,D,C,F, & E,D,C,F, | 
[V:1] B,2C2 | 
[V:2] [F,2D,2][G,2E,2] & B,,4- | 
[V:1] D2E2 | 
[V:2] B,4 & [F,2B,,2][G,2G,,2] | 
[V:1] !fermata!F4 & C4 | 
[V:2] B,2=A,2 & !fermata!F,,4 | 
[V:1] c2F2 & z4 | 
[V:2] z4 | 
[V:1] dcB2 & z4 | 
[V:2] B,CD2 & z4 | 
[V:1] =A4 & z4 | 
[V:2] EGFE & z4 | 
[V:1] Bcd2 & z4 | 
[V:2] D=A,B,2 & z4 | 
[V:1] e2d2 & G2F2 | 
[V:2] B,4 & E,2B,,2 | 
[V:1] !accent!d>cB2 & E2F2 | 
[V:2] =A,2B,2 & C,2D,2 | 
[V:1] !accent!c2B=A & G2F3/E/ | 
[V:2] E2DC & E,2F,2 | 
[V:1] B4- & D2=D2 | 
[V:2] B,2_A,2 & B,,4- | 
[V:1] B4- & EGFE | 
[V:2] G,B,A,G, & B,,4- | 
[V:1] !fermata!B4 & =D4 |]  
[V:2] F,4 & !fermata!B,,4 |]  


